assets/components/doc/doc.svg

<?xml version="1.0" standalone="no"?><!DOCTYPE svg PUBLIC "-//W3C//DTD SVG 1.1//EN" "http://www.w3.org/Graphics/SVG/1.1/DTD/svg11.dtd"><svg t="1526887542042" class="icon" style="" viewBox="0 0 1024 1024" version="1.1" xmlns="http://www.w3.org/2000/svg" p-id="813" xmlns:xlink="http://www.w3.org/1999/xlink" width="200" height="200"><defs><style type="text/css"></style></defs><path d="M535.119473 0h69.599248v95.247413C729.226717 96.331138 853.614299 93.92286 977.881468 96.331138a40.459078 40.459078 0 0 1 44.914393 45.516463c2.047037 234.566322 0 469.614299 1.204139 703.819379-1.204139 24.082785 2.287865 50.694262-11.318909 72.248354-16.978363 12.041392-38.893697 10.837253-58.761994 12.041392h-349.200376V1023.518344h-72.248354C354.980245 990.886171 177.490122 960.541863 0 928.752587V95.488241C178.33302 63.578551 356.786453 32.511759 535.119473 0z" fill="#2A5699" p-id="814"></path><path d="M604.718721 131.010348H988.598307v761.979304H604.718721v-95.247413h302.479774v-48.165569H604.718721v-59.002822h302.479774v-48.16557H604.718721v-59.002822h302.479774v-48.165569H604.718721v-60.206961h302.479774V428.673565H604.718721v-60.206961h302.479774v-46.96143H604.718721v-59.604892h302.479774V214.336783H604.718721zM240.827846 341.373471c22.156162-1.324553 44.19191-2.287865 66.348071-3.492003 15.533396 80.4365 31.30762 160.632173 48.165569 240.827845 13.125118-82.724365 27.695202-165.087488 41.783632-247.571025 23.239887-0.842897 46.479774-2.167451 69.719661-3.612418-26.370649 115.356538-49.369708 231.796802-78.148636 346.430856-19.386642 10.355597-48.165569 0-71.52587 1.204139C301.034807 596.169332 283.093133 517.779868 269.245532 438.667921c-13.606773 76.944497-31.30762 153.16651-46.841016 229.508937-22.39699-1.204139-44.793979-2.528692-67.311383-4.094073-19.266228-104.760113-42.024459-208.918156-60.206962-313.919097 19.868297-0.963311 39.857008-1.806209 60.206962-2.528693 12.041392 75.860771 25.648166 151.360301 36.124177 227.341487 16.135466-77.907808 32.873001-155.695202 49.610536-233.603011z" fill="#FFFFFF" p-id="815"></path></svg>

<svg xmlns="http://www.w3.org/2000/svg" width="200" height="200" viewBox="0 0 1024 1024"><path fill="#2A5699" d="M535.12 0h69.599v95.247c124.508 1.084 248.895-1.324 373.162 1.084a40.46 40.46 0 0144.915 45.517c2.047 234.566 0 469.614 1.204 703.819-1.204 24.083 2.288 50.694-11.319 72.248-16.978 12.042-38.894 10.838-58.762 12.042h-349.2v93.561H532.47C354.98 990.886 177.49 960.542 0 928.753V95.488C178.333 63.578 356.786 32.512 535.12 0z"/><path fill="#FFF" d="M604.719 131.01h383.88v761.98h-383.88v-95.248h302.48v-48.165h-302.48v-59.003h302.48v-48.166h-302.48v-59.003h302.48V535.24h-302.48v-60.207h302.48v-46.36h-302.48v-60.206h302.48v-46.962h-302.48V261.9h302.48v-47.563h-302.48zM240.828 341.373c22.156-1.324 44.192-2.287 66.348-3.492 15.533 80.437 31.308 160.633 48.165 240.828 13.126-82.724 27.696-165.087 41.784-247.57 23.24-.844 46.48-2.168 69.72-3.613-26.37 115.356-49.37 231.797-78.149 346.43-19.386 10.356-48.165 0-71.526 1.205-16.135-78.992-34.077-157.381-47.924-236.493-13.607 76.944-31.308 153.166-46.841 229.509-22.397-1.204-44.794-2.529-67.312-4.094-19.266-104.76-42.024-208.918-60.207-313.92a4640.612 4640.612 0 0160.207-2.528c12.042 75.86 25.648 151.36 36.124 227.341 16.136-77.907 32.873-155.695 49.61-233.603z"/></svg>
